svg/bigRingsBottomLeftTopRight.svg

<?xml version="1.0" encoding="UTF-8" standalone="no"?>
<!-- Created with Inkscape (http://www.inkscape.org/) -->

<svg
   width="32"
   height="32"
   viewBox="0 0 8.4666666 8.4666668"
   version="1.1"
   id="svg5"
   inkscape:version="1.2 (dc2aeda, 2022-05-15)"
   sodipodi:docname="bigRingsBottomLeftTopRight.svg"
   xmlns:inkscape="http://www.inkscape.org/namespaces/inkscape"
   xmlns:sodipodi="http://sodipodi.sourceforge.net/DTD/sodipodi-0.dtd"
   xmlns="http://www.w3.org/2000/svg"
   xmlns:svg="http://www.w3.org/2000/svg"
   xmlns:rdf="http://www.w3.org/1999/02/22-rdf-syntax-ns#"
   xmlns:cc="http://creativecommons.org/ns#">
  <sodipodi:namedview
     id="namedview7"
     pagecolor="#ffffff"
     bordercolor="#111111"
     borderopacity="1"
     inkscape:pageshadow="0"
     inkscape:pageopacity="0"
     inkscape:pagecheckerboard="1"
     inkscape:document-units="mm"
     showgrid="true"
     width="32mm"
     units="px"
     objecttolerance="10000"
     guidetolerance="10000"
     inkscape:snap-perpendicular="true"
     inkscape:snap-tangential="true"
     inkscape:zoom="34.90625"
     inkscape:cx="16.014324"
     inkscape:cy="16.028648"
     inkscape:window-width="2560"
     inkscape:window-height="1301"
     inkscape:window-x="0"
     inkscape:window-y="25"
     inkscape:window-maximized="0"
     inkscape:current-layer="layer1"
     gridtolerance="10000"
     inkscape:showpageshadow="0"
     inkscape:deskcolor="#d1d1d1">
    <inkscape:grid
       type="xygrid"
       id="grid9"
       units="px"
       empspacing="2" />
  </sodipodi:namedview>
  <defs
     id="defs2" />
  <g
     inkscape:label="Layer 1"
     inkscape:groupmode="layer"
     id="layer1">
    <path
       id="circle1317"
       style="fill:#000000;stroke-width:0"
       d="M 6.0854173,0.52916667 A 1.8520833,1.8520833 0 0 1 7.9375006,2.38125 1.8520833,1.8520833 0 0 1 6.0854173,4.2333333 1.8520833,1.8520833 0 0 1 4.233334,2.38125 1.8520833,1.8520833 0 0 1 6.0854173,0.52916667 Z m 0,0.52916663 A 1.3229166,1.3229166 0 0 0 4.7625006,2.38125 1.3229166,1.3229166 0 0 0 6.0854173,3.7041667 1.3229166,1.3229166 0 0 0 7.408334,2.38125 1.3229166,1.3229166 0 0 0 6.0854173,1.0583333 Z" />
    <path
       id="path1333"
       style="fill:#000000;stroke-width:0"
       d="M 6.0854167,7.9375 A 0.52916664,0.52916664 0 0 0 5.55625,8.4666667 H 6.6145833 A 0.52916664,0.52916664 0 0 0 6.0854167,7.9375 Z" />
    <path
       id="path1338"
       style="fill:#000000;stroke-width:0"
       d="M 2.3812505,0.52916764 A 0.52916664,0.52916664 0 0 1 1.8520838,8.7666667e-7 H 2.9104171 A 0.52916664,0.52916664 0 0 1 2.3812505,0.52916764 Z" />
    <path
       id="path1354"
       style="fill:#000000;stroke-width:0"
       d="M 0.52916738,2.3812507 A 0.52916664,0.52916664 0 0 1 5.7666667e-7,2.9104173 V 1.8520842 A 0.52916664,0.52916664 0 0 1 0.52916738,2.3812507 Z" />
    <path
       id="path1356"
       style="fill:#000000;stroke-width:0"
       d="M 7.9374997,6.0854169 A 0.52916664,0.52916664 0 0 0 8.4666664,6.6145835 V 5.5562504 A 0.52916664,0.52916664 0 0 0 7.9374997,6.0854169 Z" />
    <path
       id="path1372"
       style="fill:#000000;stroke-width:0"
       d="M 8.7666667e-7,7.9375 A 0.52916664,0.52916664 0 0 1 0.52916768,8.4666667 H 8.7666667e-7 Z" />
    <path
       id="path1391"
       style="fill:#000000;stroke-width:0"
       d="M 8.4666667,0.52916764 A 0.52916664,0.52916664 0 0 1 7.9375,8.7666666e-7 h 0.5291667 z" />
    <path
       id="path1454"
       style="fill:#000000;stroke-width:0"
       d="M 2.3812511,4.233333 A 1.8520833,1.8520833 0 0 1 4.2333344,6.0854163 1.8520833,1.8520833 0 0 1 2.3812511,7.9374996 1.8520833,1.8520833 0 0 1 0.52916778,6.0854163 1.8520833,1.8520833 0 0 1 2.3812511,4.233333 Z m 0,0.5291666 A 1.3229166,1.3229166 0 0 0 1.0583344,6.0854163 1.3229166,1.3229166 0 0 0 2.3812511,7.408333 1.3229166,1.3229166 0 0 0 3.7041678,6.0854163 1.3229166,1.3229166 0 0 0 2.3812511,4.7624996 Z" />
  </g>
  <metadata
     id="metadata33">
    <rdf:RDF>
      <cc:Work
         rdf:about="">
        <cc:license
           rdf:resource="http://creativecommons.org/licenses/by-sa/4.0/" />
      </cc:Work>
      <cc:License
         rdf:about="http://creativecommons.org/licenses/by-sa/4.0/">
        <cc:permits
           rdf:resource="http://creativecommons.org/ns#Reproduction" />
        <cc:permits
           rdf:resource="http://creativecommons.org/ns#Distribution" />
        <cc:requires
           rdf:resource="http://creativecommons.org/ns#Notice" />
        <cc:requires
           rdf:resource="http://creativecommons.org/ns#Attribution" />
        <cc:permits
           rdf:resource="http://creativecommons.org/ns#DerivativeWorks" />
        <cc:requires
           rdf:resource="http://creativecommons.org/ns#ShareAlike" />
      </cc:License>
    </rdf:RDF>
  </metadata>
</svg>

<svg width="32" height="32" viewBox="0 0 8.467 8.467" xmlns="http://www.w3.org/2000/svg"><path style="fill:#000;stroke-width:0" d="M6.085.53A1.852 1.852 0 0 1 7.938 2.38a1.852 1.852 0 0 1-1.853 1.852 1.852 1.852 0 0 1-1.852-1.852A1.852 1.852 0 0 1 6.085.53Zm0 .528a1.323 1.323 0 0 0-1.322 1.323 1.323 1.323 0 0 0 1.322 1.323 1.323 1.323 0 0 0 1.323-1.323 1.323 1.323 0 0 0-1.323-1.323ZM6.085 7.938a.53.53 0 0 0-.529.529h1.059a.53.53 0 0 0-.53-.53ZM2.381.53A.53.53 0 0 1 1.852 0H2.91a.53.53 0 0 1-.529.53ZM.53 2.381a.53.53 0 0 1-.53.53V1.851a.53.53 0 0 1 .53.53ZM7.937 6.085a.53.53 0 0 0 .53.53V5.556a.53.53 0 0 0-.53.53ZM0 7.938a.53.53 0 0 1 .53.529H0ZM8.467.53a.53.53 0 0 1-.53-.53h.53zM2.381 4.233a1.852 1.852 0 0 1 1.852 1.852 1.852 1.852 0 0 1-1.852 1.852A1.852 1.852 0 0 1 .53 6.085a1.852 1.852 0 0 1 1.852-1.852Zm0 .53a1.323 1.323 0 0 0-1.323 1.322 1.323 1.323 0 0 0 1.323 1.323 1.323 1.323 0 0 0 1.323-1.323 1.323 1.323 0 0 0-1.323-1.323Z"/></svg>
